X:1
T:Shoes and Stockings
L:1/8
M:2/2
I:linebreak $
K:G
V:1 treble nm="Voice" snm="Voice"
V:1
 D2 | G2 G2 B2 B2 | cB c2 d4 | G2 G2 BAGB | ABAG FEDF |$ G2 G2 B2 B2 | cB c2 d4 | cecc BGAF | %8
 G4 G2 ::$ d2 | g2 g2 a2 a2 | ba b2 | c2 c2 B2 B2 | AB c2 d2 g2 | %14
